!!!COM: Music21
!!!OTL: Estrume
!!!OMV: pezas_pasodobles_estrume_estrume-partitura.musicxml
**kern
*I"Bagpipes
*I'Bag
*clefG^2
*k[]
*M2/4
=1
!LO:TX:a:t=Vivace
*MM144
!LO:TX:a:t=[quarter]=144
8r
8ccc
8bbL
8cccJ
=||
8.ggL
16eeJk
8ccL
8eeJ
=
8aaL
8ggJ
8ffL
8eeJ
=
8.eeL
16ddJk
[4cc
=
8ccL]
8cccJ
8bbL
8cccJ
=
8.ggL
16eeJk
8ccL
8eeJ
=
8aaL
8ggJ
8ffL
8eeJ
=
8ffL
16ffL
16eeJJ
8ddL
16ddL
16eeJJ
=
8ffL
8aaJ
8ggL
8aaJ
!!linebreak:original
=
8.ffL
16eeJk
8ddL
8eeJ
=
8cccL
8aaJ
8ggL
8ffJ
=
8.eeL
16ddJk
[4cc
=
8ccL]
8ccJ
8eeL
8ccJ
=
8ddL
8ffJ
8ddL
8eeJ
=
8ggL
8eeJ
8ddL
8eeJ
=
[2cc
=
8ccL]
8cccJ
8bbL
8cccJ
=||
8.ggL
16eeJk
8ccL
8eeJ
=
8aaL
8ggJ
8ffL
8eeJ
!!linebreak:original
=
8.eeL
16ddJk
[4cc
=
8ccL]
8cccJ
8bbL
8cccJ
=
8.ggL
16eeJk
8ccL
8eeJ
=
8aaL
8ggJ
8ffL
8eeJ
=
8ffL
16ffL
16eeJJ
8ddL
16ddL
16eeJJ
=
8ffL
8aaJ
8ggL
8aaJ
!!linebreak:original
=
8.ffL
16eeJk
8ddL
8eeJ
=
8cccL
8aaJ
8ggL
8ffJ
=
8.eeL
16ddJk
[4cc
=
8ccL]
8ccJ
8eeL
8ccJ
=
8ddL
8ffJ
8ddL
8eeJ
=
8ggL
8eeJ
8ddL
8eeJ
=
[2cc
=
8ccL]
16bL
16ccJJ
16ddLL
16ee
16ff
16ggJJ
!!linebreak:original
=||
8.aaL
16ggJk
8ffL
8ggJ
=
8aaL
8ggJ
8ffL
8ggJ
=
8.eeL
16ddJk
8ccL
8ddJ
=
8eeL
8ccJ
8ddL
8eeJ
=
8.ddL
16ccJk
8bL
8ccJ
=
8ddL
8bJ
8ccL
8ddJ
=
8.ggL
16ffJk
16eeLL
16dd
16ee
16ffJJ
=
8ggL
16bL
16ccJJ
16ddLL
16ee
16ff
16ggJJ
!!linebreak:original
=
8.aaL
16ggJk
8ffL
8ggJ
!!linebreak:original
=
8aaL
8ggJ
8ffL
8ggJ
=
8.eeL
16ddJk
8ccL
8ddJ
=
8eeL
8ccJ
8ddL
8eeJ
=
8.ddL
16ccJk
8bL
8ccJ
=
8ggL
8ffJ
8eeL
8ddJ
=
4cc
8eeL
8ggJ
=
8ccL
16bL
16ccJJ
16ddLL
16ee
16ff
16ggJJ
!!linebreak:original
=||
8.aaL
16ggJk
8ffL
8ggJ
=
8aaL
8ggJ
8ffL
8ggJ
=
8.eeL
16ddJk
8ccL
8ddJ
=
8eeL
8ccJ
8ddL
8eeJ
=
8.ddL
16ccJk
8bL
8ccJ
=
8ddL
8bJ
8ccL
8ddJ
=
8.ggL
16ffJk
16eeLL
16dd
16ee
16ffJJ
=
8ggL
16bL
16ccJJ
16ddLL
16ee
16ff
16ggJJ
!!linebreak:original
=
8.aaL
16ggJk
8ffL
8ggJ
!!linebreak:original
=
8aaL
8ggJ
8ffL
8ggJ
=
8.eeL
16ddJk
8ccL
8ddJ
=
8eeL
8ccJ
8ddL
8eeJ
=
8.ddL
16ccJk
8bL
8ccJ
=
8ggL
8ffJ
8eeL
8ddJ
=
4cc
8eeL
8ggJ
=
*k[b-]
*F:
4cc
8eeL
8ggJ
=||
8cccL
8dddJ
8cccL
8aaJ
!!linebreak:original
=
8bb-L
8cccJ
8bb-L
8ggJ
=
8aaL
8cccJ
8aaL
8ffJ
=
8ggL
8ccJ
8eeL
8ggJ
=
8bb-L
8cccJ
8bb-L
8ggJ
=
8aaL
8cccJ
8aaL
8ffJ
=
8ggL
8ffJ
8eeL
8ddJ
=
8eeL
8ccJ
8eeL
8ggJ
=
8cccL
8dddJ
8cccL
8aaJ
=
8bb-L
8cccJ
8bb-L
8ggJ
=
8aaL
8cccJ
8aaL
8ffJ
!!linebreak:original
=
8ggL
8ccJ
8eeL
8ggJ
=
8bb-L
8cccJ
8bb-L
8ggJ
=
8aaL
8cccJ
8aaL
8ffJ
=
8ggL
8ffJ
8ddL
8eeJ
=
4cc
8eeL
8ggJ
=||
8cccL
8dddJ
8cccL
8aaJ
!!pagebreak:original
=
8bb-L
8cccJ
8bb-L
8ggJ
=
8aaL
8cccJ
8aaL
8ffJ
=
8ggL
8ccJ
8eeL
8ggJ
=
8bb-L
8cccJ
8bb-L
8ggJ
=
8aaL
8cccJ
8aaL
8ffJ
=
8ggL
8ffJ
8eeL
8ddJ
=
8eeL
8ccJ
8eeL
8ggJ
=
8cccL
8dddJ
8cccL
8aaJ
=
8bb-L
8cccJ
8bb-L
8ggJ
=
8aaL
8cccJ
8aaL
8ffJ
!!linebreak:original
=
8ggL
8ccJ
8eeL
8ggJ
=
8bb-L
8cccJ
8bb-L
8ggJ
=
8aaL
8cccJ
8aaL
8ffJ
=
8ggL
8ffJ
8ddL
8eeJ
=||
*k[]
*C:
8ccL
8cccJ
8bbL
8cccJ
=||
8cc
8r
4r
==
*-
